static/app-icons/light-theme/041.svg

<svg xmlns="http://www.w3.org/2000/svg" xmlns:xlink="http://www.w3.org/1999/xlink" viewBox="0 0 32 32"><defs><linearGradient id="linear-gradient" x1="5701" y1="1015.5" x2="5708" y2="1015.5" gradientTransform="translate(-5697 -999)" gradientUnits="userSpaceOnUse"><stop offset=".2"/><stop offset=".99" stop-opacity="0"/></linearGradient><linearGradient id="linear-gradient-2" x1="21" y1="15.5" x2="28" y2="15.5" xlink:href="#linear-gradient"/><linearGradient id="linear-gradient-3" y1="32" x2="32" gradientUnits="userSpaceOnUse"><stop offset=".1" stop-color="#08bdba"/><stop offset=".9" stop-color="#0f62fe"/></linearGradient><style>.cls-1{fill:#fff}.cls-6{fill:#001d6c}</style><mask id="mask" x="0" y="0" width="32" height="32" maskUnits="userSpaceOnUse"><path class="cls-1" d="M26 22a4 4 0 00-3.858 3H8a4 4 0 010-8h2v-2H8a6 6 0 000 12h14.142A3.993 3.993 0 1026 22zm0 6a2 2 0 112-2 2 2 0 01-2 2zM6 10a4 4 0 003.858-3H24a4 4 0 010 8h-2v2h2a6 6 0 000-12H9.858A3.993 3.993 0 106 10zm0-6a2 2 0 11-2 2 2 2 0 012-2z"/><path transform="rotate(180 7.5 16.5)" fill="url(#linear-gradient)" d="M4 12h7v9H4z"/><path fill="url(#linear-gradient-2)" d="M21 11h7v9h-7z"/></mask></defs><g id="Layer_2" data-name="Layer 2"><g id="Light_theme_icons" data-name="Light theme icons"><g mask="url(#mask)"><path fill="url(#linear-gradient-3)" d="M0 0h32v32H0z"/></g><path class="cls-6" d="M10 13h2v6h-2z"/><path class="cls-6" transform="rotate(90 16 11)" d="M15 8h2v6h-2z"/><path class="cls-6" transform="rotate(90 16 21)" d="M15 18h2v6h-2z"/><path class="cls-6" d="M20 13h2v6h-2z"/></g></g></svg>

<svg xmlns="http://www.w3.org/2000/svg" xmlns:xlink="http://www.w3.org/1999/xlink" viewBox="0 0 32 32"><defs><style>.cls-1{fill:#fff;}.cls-2{fill:url(#linear-gradient);}.cls-3{fill:url(#linear-gradient-2);}.cls-4{mask:url(#mask);}.cls-5{fill:url(#linear-gradient-3);}.cls-6{fill:#001d6c;}</style><linearGradient id="linear-gradient" x1="5701" y1="1015.5" x2="5708" y2="1015.5" gradientTransform="translate(-5697 -999)" gradientUnits="userSpaceOnUse"><stop offset="0.2"/><stop offset="0.99" stop-opacity="0"/></linearGradient><linearGradient id="linear-gradient-2" x1="21" y1="15.5" x2="28" y2="15.5" gradientTransform="matrix(1, 0, 0, 1, 0, 0)" xlink:href="#linear-gradient"/><mask id="mask" x="0" y="0" width="32" height="32" maskUnits="userSpaceOnUse"><path class="cls-1" d="M26,22a4,4,0,0,0-3.858,3H8a4,4,0,0,1,0-8h2V15H8A6,6,0,0,0,8,27H22.142A3.993,3.993,0,1,0,26,22Zm0,6a2,2,0,1,1,2-2A2,2,0,0,1,26,28Z"/><path class="cls-1" d="M6,10A4,4,0,0,0,9.858,7H24a4,4,0,0,1,0,8H22v2h2A6,6,0,0,0,24,5H9.858A3.993,3.993,0,1,0,6,10ZM6,4A2,2,0,1,1,4,6,2,2,0,0,1,6,4Z"/><rect class="cls-2" x="4" y="12" width="7" height="9" transform="translate(15 33) rotate(180)"/><rect class="cls-3" x="21" y="11" width="7" height="9"/></mask><linearGradient id="linear-gradient-3" y1="32" x2="32" gradientUnits="userSpaceOnUse"><stop offset="0.1" stop-color="#08bdba"/><stop offset="0.9" stop-color="#0f62fe"/></linearGradient></defs><g id="Layer_2" data-name="Layer 2"><g id="Light_theme_icons" data-name="Light theme icons"><g class="cls-4"><rect class="cls-5" width="32" height="32"/></g><rect class="cls-6" x="10" y="13" width="2" height="6"/><rect class="cls-6" x="15" y="8" width="2" height="6" transform="translate(27 -5) rotate(90)"/><rect class="cls-6" x="15" y="18" width="2" height="6" transform="translate(37 5) rotate(90)"/><rect class="cls-6" x="20" y="13" width="2" height="6"/></g></g></svg>
